icon_installer/data/icons/scalable/actions/show-phonelink-setup-symbolic.svg

<?xml version="1.0" encoding="UTF-8"?>
<svg height="16px" viewBox="0 0 16 16" width="16px" xmlns="http://www.w3.org/2000/svg">
    <g fill="#222222">
        <path d="m 4.199219 0 c -1.203125 0 -2.199219 1 -2.199219 2.199219 v 1.808593 h 2 v -1.808593 c 0 -0.128907 0.074219 -0.199219 0.199219 -0.199219 h 7.605469 c 0.125 0 0.195312 0.070312 0.195312 0.199219 v 9.613281 c 0 0.128906 -0.070312 0.199219 -0.195312 0.199219 l -9.804688 -0.011719 v 1.800781 c 0 1.199219 0.996094 2.199219 2.199219 2.199219 h 7.605469 c 1.203124 0 2.195312 -1 2.195312 -2.199219 v -11.601562 c 0 -1.199219 -0.992188 -2.199219 -2.195312 -2.199219 z m 3.800781 12.902344 c 0.550781 0 1 0.382812 1 0.933594 c 0 0.550781 -0.449219 1 -1 1 s -1 -0.449219 -1 -1 c 0 -0.550782 0.449219 -0.933594 1 -0.933594 z m 0 0"/>
        <path d="m 2.625 4.4375 c -0.230469 0.046875 -0.445312 0.132812 -0.65625 0.21875 c -0.015625 0.625 0.085938 1.441406 -0.15625 1.65625 c -0.238281 0.210938 -1.039062 0.035156 -1.65625 -0.03125 c -0.1328125 0.238281 -0.234375 0.484375 -0.3125 0.75 c 0.476562 0.394531 1.140625 0.839844 1.15625 1.15625 c 0.015625 0.320312 -0.625 0.804688 -1.0625 1.25 c 0.1015625 0.257812 0.25 0.492188 0.40625 0.71875 c 0.609375 -0.125 1.367188 -0.375 1.625 -0.1875 c 0.261719 0.1875 0.265625 1.003906 0.34375 1.625 c 0.25 0.074219 0.511719 0.105469 0.78125 0.125 c 0.28125 -0.554688 0.566406 -1.320312 0.875 -1.40625 c 0.316406 -0.089844 0.964844 0.457031 1.5 0.78125 c 0.21875 -0.152344 0.414062 -0.335938 0.59375 -0.53125 c -0.253906 -0.574219 -0.722656 -1.292969 -0.59375 -1.59375 s 0.976562 -0.46875 1.5625 -0.6875 c 0.003906 -0.074219 0.03125 -0.144531 0.03125 -0.21875 c 0 -0.191406 -0.035156 -0.378906 -0.0625 -0.5625 c -0.605469 -0.160156 -1.46875 -0.242188 -1.625 -0.53125 s 0.242188 -1.0625 0.4375 -1.65625 c -0.199219 -0.179688 -0.417969 -0.335938 -0.65625 -0.46875 c -0.5 0.375 -1.085938 0.996094 -1.40625 0.9375 c -0.316406 -0.054688 -0.664062 -0.820312 -1 -1.34375 c -0.039062 0.007812 -0.085938 -0.007812 -0.125 0 z m 0.625 1.875 c 0.933594 0 1.6875 0.753906 1.6875 1.6875 s -0.753906 1.6875 -1.6875 1.6875 s -1.6875 -0.753906 -1.6875 -1.6875 s 0.753906 -1.6875 1.6875 -1.6875 z m 0 0"/>
    </g>
</svg>

<svg xmlns="http://www.w3.org/2000/svg" width="16" height="16"><g fill="#222"><path d="M4.2 0C2.995 0 2 1 2 2.2v1.808h2V2.199C4 2.07 4.074 2 4.2 2h7.605c.125 0 .195.07.195.2v9.613c0 .128-.07.199-.195.199L2 12v1.8C2 15 2.996 16 4.2 16h7.605C13.008 16 14 15 14 13.8V2.2C14 1 13.008 0 11.805 0zM8 12.902c.55 0 1 .383 1 .934 0 .55-.45 1-1 1s-1-.45-1-1 .45-.934 1-.934zm0 0"/><path d="M2.625 4.438c-.23.046-.445.132-.656.218-.016.625.086 1.442-.157 1.657-.238.21-1.039.035-1.656-.032a3.619 3.619 0 0 0-.312.75C.32 7.426.984 7.871 1 8.188c.016.32-.625.804-1.063 1.25.102.257.25.492.407.718.61-.125 1.367-.375 1.625-.187.261.187.265 1.004.343 1.625.25.074.512.105.782.125.281-.555.566-1.32.875-1.406.316-.09.965.457 1.5.78.218-.152.414-.335.593-.53-.253-.575-.722-1.293-.593-1.594S6.445 8.5 7.03 8.28c.004-.074.032-.144.032-.219 0-.19-.036-.378-.063-.562-.605-.16-1.469-.242-1.625-.531s.242-1.063.438-1.657c-.2-.18-.418-.335-.657-.468-.5.375-1.086.996-1.406.937-.316-.054-.664-.82-1-1.343-.04.007-.086-.008-.125 0zm.625 1.875c.934 0 1.688.753 1.688 1.687S4.184 9.688 3.25 9.688 1.562 8.934 1.562 8s.754-1.688 1.688-1.688zm0 0"/></g></svg>
